X:230
T:Reel
O:No 230 Wm Clarke of Feltwell
N:
M:C
L:1/8
K:G
G2BG dGBG| G2 Bd ed (3efg| G2 Bg dGBG| GFDF G2G2:||/!
:d2 dg e2 eg| dgbd' c'bag| d2 dg e2 eg| dBAB G2 G2:|]

